svg/info.svg

<?xml version="1.0" encoding="UTF-8"?>
<svg xmlns="http://www.w3.org/2000/svg" xmlns:xlink="http://www.w3.org/1999/xlink" width="32" height="32" viewBox="0 0 32 32">
<path fill-rule="nonzero" fill="rgb(0%, 0%, 0%)" fill-opacity="1" d="M 1.5 16 C 1.5 24 8 30.5 16 30.5 C 24 30.5 30.5 24 30.5 16 C 30.5 8 24 1.5 16 1.5 C 8 1.5 1.5 8 1.5 16 M 15.25 10.25 C 15.25 9.824219 15.574219 9.5 16 9.5 C 16.425781 9.5 16.75 9.824219 16.75 10.25 L 16.75 11.5 C 16.75 11.925781 16.425781 12.25 16 12.25 C 15.800781 12.253906 15.605469 12.175781 15.464844 12.035156 C 15.324219 11.894531 15.246094 11.699219 15.25 11.5 Z M 15.25 15.25 C 15.25 14.824219 15.574219 14.5 16 14.5 C 16.425781 14.5 16.75 14.824219 16.75 15.25 L 16.75 21.75 C 16.75 22.175781 16.425781 22.5 16 22.5 C 15.800781 22.503906 15.605469 22.425781 15.464844 22.285156 C 15.324219 22.144531 15.246094 21.949219 15.25 21.75 Z M 15.25 15.25 "/>
</svg>

<svg role="img" viewBox="0 0 32 32" height="32" width="32" xmlns="http://www.w3.org/2000/svg"><path d="M1.5 16C1.5 24 8 30.5 16 30.5S30.5 24 30.5 16 24 1.5 16 1.5 1.5 8 1.5 16m13.75-5.75c0-.426.324-.75.75-.75s.75.324.75.75v1.25c0 .426-.324.75-.75.75a.74.74 0 0 1-.535-.215.74.74 0 0 1-.215-.535Zm0 5c0-.426.324-.75.75-.75s.75.324.75.75v6.5c0 .426-.324.75-.75.75a.74.74 0 0 1-.535-.215.74.74 0 0 1-.215-.535Zm0 0"/></svg>
